symbols/web/local_activity/materialsymbolssharp/local_activity_grad200fill1_48px.svg

<svg xmlns="http://www.w3.org/2000/svg" height="48" width="48"><path d="M3.2 40.75v-11.9q1.8-.4 3.075-1.675Q7.55 25.9 7.55 24t-1.275-3.225Q5 19.45 3.2 19.1V7.2h41.65v11.9q-1.8.35-3.05 1.675Q40.55 22.1 40.55 24q0 1.9 1.25 3.175t3.05 1.675v11.9Zm15.1-7.45 5.7-4.4 5.7 4.4-2.2-6.95 5.35-4.45H26.3L24 15.2l-2.3 6.7h-6.55l5.35 4.45Z"/></svg>

<svg xmlns="http://www.w3.org/2000/svg" height="48" width="48"><path d="M3.2 40.75V28.85Q5 28.45 6.275 27.175Q7.55 25.9 7.55 24Q7.55 22.1 6.275 20.775Q5 19.45 3.2 19.1V7.2H44.85V19.1Q43.05 19.45 41.8 20.775Q40.55 22.1 40.55 24Q40.55 25.9 41.8 27.175Q43.05 28.45 44.85 28.85V40.75ZM18.3 33.3 24 28.9 29.7 33.3 27.5 26.35 32.85 21.9H26.3L24 15.2L21.7 21.9H15.15L20.5 26.35Z"/></svg>
